X: 12
M:4/4
L:1/8
K:G
|:A2 A2 A2 B=c|dBAG FAFD|d2 d2 d2 ef|gedc BdBG|
e2 c2 c2 ge|d2 B2 B2 g2|ecec BAGF|G2 G2 G2 z2:||

